X:404
T:Reel 404
M:4/4
K:Dmaj
L:1/8
AG|FEFG A2Ac|BGGF E2DE|FEFG A2Ac| (3Bcd AG FEEG|FEFG A2Ac|BAGB AGFG|fddc dcBA|Bdce d2|z2|FEFG A2FA|BAGB AGFD|FEFG A2A2|GFED B2AG|FGFG A2AF|BcBG A2DE|FGED DEDE|FGEF D2|
